X:337
T: UFM BERGLI BIN I GESAESSE
N: B0397
O: Europa, Mitteleuropa, Deutschland
R: Liebes - Lied, Liebes - Lust, Erotik
M: 3/4
L: 1/8
K: C
E,F, | G,EC2E,F, | G,EC2
G,A, | G,ED2B,F, | E,4
E,F, | G,ED2B,F, | E,CB,2
F,D, | B,A,G,2F,D, | C,4
E,G,C | E2D2G,B,D | F2E2
CEG | A3GDE | C4

